static/assets/images/tokens/rseth.svg

<svg width="256" height="256" viewBox="0 0 256 256" fill="none" xmlns="http://www.w3.org/2000/svg">
<path d="M128 256C198.692 256 256 198.692 256 128C256 57.3077 198.692 0 128 0C57.3077 0 0 57.3077 0 128C0 198.692 57.3077 256 128 256Z" fill="#075A5A"/>
<g style="mix-blend-mode:screen" opacity="0.3">
<path opacity="0.8" d="M127.975 29.3335V101.046L188.586 128.132L127.975 29.3335Z" fill="white"/>
<path d="M127.918 29.3335L67.2959 128.132L127.918 101.046V29.3335Z" fill="white"/>
<path opacity="0.8" d="M127.975 174.588V223.317L188.628 139.4L127.975 174.588Z" fill="white"/>
<path d="M127.918 223.317V174.581L67.2959 139.4L127.918 223.317Z" fill="white"/>
<path opacity="0.5" d="M127.975 163.352L188.586 128.156L127.975 101.088V163.352Z" fill="white"/>
<path d="M67.2959 128.156L127.918 163.352V101.088L67.2959 128.156Z" fill="white" fill-opacity="0.3"/>
</g>
<g style="mix-blend-mode:screen" opacity="0.3">
<path opacity="0.8" d="M127.974 32.9316V99.4003L184.153 124.505L127.974 32.9316Z" fill="white"/>
<path d="M127.929 32.9316L71.7402 124.505L127.929 99.4003V32.9316Z" fill="white"/>
<path opacity="0.8" d="M127.974 177.86V218.125L178.093 148.784L127.974 177.86Z" fill="white"/>
<path d="M127.972 218.125V177.854L77.8789 148.784L127.972 218.125Z" fill="white"/>
<path opacity="0.5" d="M127.974 161.02L184.153 128.399L127.974 103.311V161.02Z" fill="white"/>
<path d="M71.7402 128.399L127.929 161.02V103.311L71.7402 128.399Z" fill="white" fill-opacity="0.3"/>
</g>
<path d="M127.975 50.606V106.585L175.288 127.728L127.975 50.606Z" fill="#C1DCDC"/>
<path d="M127.952 50.606L80.6309 127.728L127.952 106.585V50.606Z" fill="white"/>
<path d="M127.975 164.011V202.048L175.321 136.542L127.975 164.011Z" fill="#C1DCDC"/>
<path d="M127.952 202.048V164.004L80.6309 136.542L127.952 202.048Z" fill="white"/>
<path opacity="0.5" d="M127.975 155.195L175.288 127.721L127.975 106.592V155.195Z" fill="white"/>
<path d="M80.6309 127.721L127.952 155.195V106.592L80.6309 127.721Z" fill="white" fill-opacity="0.3"/>
</svg>

<svg xmlns="http://www.w3.org/2000/svg" fill="none" viewBox="0 0 256 256"><path fill="#075A5A" d="M128 256c70.692 0 128-57.308 128-128S198.692 0 128 0 0 57.308 0 128s57.308 128 128 128"/><g fill="#fff" opacity=".3" style="mix-blend-mode:screen"><path d="M127.975 29.334v71.712l60.611 27.086z" opacity=".8"/><path d="m127.918 29.334-60.622 98.798 60.622-27.086z"/><path d="M127.975 174.588v48.729l60.653-83.917z" opacity=".8"/><path d="M127.918 223.317v-48.736L67.296 139.4z"/><path d="m127.975 163.352 60.611-35.196-60.611-27.068z" opacity=".5"/><path fill-opacity=".3" d="m67.296 128.156 60.622 35.196v-62.264z"/></g><g fill="#fff" opacity=".3" style="mix-blend-mode:screen"><path d="M127.974 32.932V99.4l56.179 25.105z" opacity=".8"/><path d="M127.929 32.932 71.74 124.505 127.93 99.4z"/><path d="M127.974 177.86v40.265l50.119-69.341z" opacity=".8"/><path d="M127.972 218.125v-40.271l-50.093-29.07z"/><path d="m127.974 161.02 56.179-32.621-56.179-25.088z" opacity=".5"/><path fill-opacity=".3" d="m71.74 128.399 56.189 32.621v-57.709z"/></g><path fill="#C1DCDC" d="M127.975 50.606v55.979l47.313 21.143z"/><path fill="#fff" d="m127.952 50.606-47.321 77.122 47.321-21.143z"/><path fill="#C1DCDC" d="M127.975 164.011v38.037l47.346-65.506z"/><path fill="#fff" d="M127.952 202.048v-38.044l-47.321-27.462z"/><path fill="#fff" d="m127.975 155.195 47.313-27.474-47.313-21.129z" opacity=".5"/><path fill="#fff" fill-opacity=".3" d="m80.63 127.721 47.322 27.474v-48.603z"/></svg>
